img/icons/_Footer_phone_icon.svg

<svg xmlns="http://www.w3.org/2000/svg" width="11" height="11" viewBox="0 0 11 11"><path d="M10.503 8.137c-.03-.089-.218-.221-.566-.394a19.1 19.1 0 0 0-.401-.224 42.685 42.685 0 0 1-.473-.26 13.902 13.902 0 0 1-.398-.231l-.186-.13a2.086 2.086 0 0 0-.264-.16.497.497 0 0 0-.212-.052c-.099 0-.223.071-.372.212a3.662 3.662 0 0 0-.409.461c-.124.167-.256.32-.394.462-.139.141-.253.212-.343.212a.524.524 0 0 1-.167-.037 1.524 1.524 0 0 1-.153-.064 2.698 2.698 0 0 1-.178-.104 4.241 4.241 0 0 0-.142-.085 7.822 7.822 0 0 1-1.748-1.295 7.772 7.772 0 0 1-1.294-1.749l-.086-.141a1.348 1.348 0 0 1-.167-.331.503.503 0 0 1-.038-.167c0-.09.071-.204.212-.343.142-.138.295-.27.462-.394.166-.124.32-.26.461-.409.141-.149.212-.273.212-.372a.48.48 0 0 0-.052-.212 2.086 2.086 0 0 0-.16-.264 5.957 5.957 0 0 0-.13-.186 12.741 12.741 0 0 1-.231-.399 34.686 34.686 0 0 1-.26-.472 23.335 23.335 0 0 0-.223-.402C2.629.26 2.498.071 2.408.042a.413.413 0 0 0-.156-.023c-.134 0-.309.025-.525.075a2.967 2.967 0 0 0-.509.156C.97.354.707.657.429 1.158.176 1.624.05 2.085.05 2.542a2.757 2.757 0 0 0 .119.818c.044.159.08.277.108.354.027.077.078.214.152.413.075.198.119.319.134.364.174.486.38.92.618 1.302.391.635.926 1.291 1.603 1.968.677.677 1.333 1.212 1.968 1.604.382.238.816.444 1.302.617.044.015.166.06.364.134a6.609 6.609 0 0 0 .767.261c.158.044.301.075.427.093.127.017.257.026.391.026.456 0 .918-.127 1.384-.38.501-.278.803-.54.908-.789a3 3 0 0 0 .156-.509c.049-.216.074-.391.074-.525a.416.416 0 0 0-.022-.156z" fill="#DA0909"/></svg>

<svg version="1.1" xmlns="http://www.w3.org/2000/svg" xmlns:xlink="http://www.w3.org/1999/xlink" width="11" height="11" viewBox="0 0 11 11"><path id="-Footer_phone_ic" d="M10.503,8.137 C10.473,8.048 10.285,7.916 9.937,7.743 C9.843,7.688 9.709,7.614 9.536,7.519 C9.362,7.425 9.205,7.338 9.063,7.259 C8.922,7.180 8.789,7.103 8.665,7.028 C8.645,7.013 8.583,6.970 8.479,6.898 C8.375,6.826 8.287,6.773 8.215,6.738 C8.143,6.704 8.072,6.686 8.003,6.686 C7.904,6.686 7.780,6.757 7.631,6.898 C7.482,7.040 7.346,7.193 7.222,7.359 C7.098,7.526 6.966,7.679 6.828,7.821 C6.689,7.962 6.575,8.033 6.485,8.033 C6.441,8.033 6.385,8.020 6.318,7.996 C6.251,7.971 6.200,7.950 6.165,7.932 C6.131,7.915 6.071,7.880 5.987,7.828 C5.902,7.776 5.855,7.748 5.845,7.743 C5.166,7.366 4.583,6.934 4.097,6.448 C3.611,5.962 3.179,5.379 2.803,4.699 C2.798,4.690 2.769,4.643 2.717,4.558 C2.665,4.474 2.630,4.414 2.613,4.380 C2.595,4.345 2.574,4.294 2.550,4.227 C2.525,4.160 2.512,4.104 2.512,4.060 C2.512,3.970 2.583,3.856 2.724,3.717 C2.866,3.579 3.019,3.447 3.186,3.323 C3.352,3.199 3.506,3.063 3.647,2.914 C3.788,2.765 3.859,2.641 3.859,2.542 C3.859,2.472 3.842,2.402 3.807,2.330 C3.772,2.258 3.719,2.170 3.647,2.066 C3.575,1.961 3.532,1.899 3.517,1.880 C3.442,1.756 3.365,1.623 3.286,1.481 C3.207,1.340 3.120,1.183 3.026,1.009 C2.931,0.835 2.857,0.701 2.803,0.607 C2.629,0.260 2.498,0.071 2.408,0.042 C2.373,0.027 2.321,0.019 2.252,0.019 C2.118,0.019 1.943,0.044 1.727,0.094 C1.512,0.143 1.342,0.196 1.218,0.250 C0.970,0.354 0.707,0.657 0.429,1.158 C0.176,1.624 0.050,2.085 0.050,2.542 C0.050,2.676 0.058,2.806 0.076,2.932 C0.093,3.059 0.124,3.201 0.169,3.360 C0.213,3.519 0.249,3.637 0.277,3.714 C0.304,3.791 0.355,3.928 0.429,4.127 C0.504,4.325 0.548,4.446 0.563,4.491 C0.737,4.977 0.943,5.411 1.181,5.793 C1.572,6.428 2.107,7.084 2.784,7.761 C3.461,8.438 4.117,8.973 4.752,9.365 C5.134,9.603 5.568,9.809 6.054,9.982 C6.098,9.997 6.220,10.042 6.418,10.116 C6.617,10.191 6.754,10.241 6.831,10.269 C6.908,10.296 7.026,10.332 7.185,10.377 C7.343,10.421 7.486,10.452 7.612,10.470 C7.739,10.487 7.869,10.496 8.003,10.496 C8.459,10.496 8.921,10.369 9.387,10.116 C9.888,9.838 10.190,9.576 10.295,9.327 C10.349,9.204 10.401,9.034 10.451,8.818 C10.500,8.602 10.525,8.427 10.525,8.293 C10.525,8.224 10.518,8.172 10.503,8.137 C10.503,8.137 10.503,8.137 10.503,8.137 z" fill="#DA0909" /></svg>
